X:1
T:Old Joe Clark
M:4/4
K:Amix
"A"e2f2 g2f2| efed c2 cd| e2f2g2f2 | "G"e2>f2 e2 cd|
"A"e2f2 g2f2| efed c2 AB|cBAc "E"BA^GB|1"A"A2>B2 A2 cd :|2"A"A2>B2 A2 cB||
|:"A"A2 AB cBcd| efed cB A2 | A2 ABcB A2 | "G"G6 cB|
"A"A2 AB cBcd| efed cBAB |cBAc "E"BA^GB|1"A"A2>B2 A2 cB :|2"A"A4z4|]
